X: 15879
T: Graf Spee, The
R: reel
M: 4/4
K: Ddorian
|:EDCD EG (3GBG|AGcG AGcG|EDCD EG (3GBG|AGcG EDD2:|
|:e3d cBcA|G~EE2 GAcd|1 e2ed cBcA|GECD EDD2:|2 eaag efed|cAGE EDD2||
|:egg^f gedg|eaag a3g|efed cBcd|e^fge edd2:|
|:ec (3ccc cAGE|GAcd ecGE|GAcd ecdB|cAGE EDD2:|
|:(3e^fg cg (3e^fg cg|(3f^ga da (3f^ga da|(3e^fg cg (3e^fg cG|GAcd edd2|
e2a^f gefd|ecdB cAGE|GAcd ecdB|cAGE EDD2:|

